X:1
T:Justorum animae - Webbe
T:#
%%score 1 { ( 2 5 ) | ( 3 4 ) }
L:1/8
Q:1/4=60
M:4/4
K:F
V:1 treble nm="Soprano" snm="S"
V:2 treble nm="Organ"
V:5 treble 
V:3 treble 
V:4 treble 
V:1
"^Offertory for All Saints""^Justorum animae""^Samuel Webbe\n(1740-1816)" z ccc f>A A2 | %1
w: Ju- sto- rum a- ni- mae|
 z B (B/c/4d/4) (c/B/) AF c2- | cF/F/ BB (BA/G/) AA |[M:4/4] (AG/F/) GF TE>D C2 | z ccc f>A A2 | %5
w: in ma- * * nu * De- i sunt,|* et non tan- get il\- * * los tor-|men\- * * tum ma- li- ti- ae:|Ju- sto- rum a- ni- mae|
 z B (B/c/4d/4) (c/B/) AF c2- | cF/F/ BB (BA/G/) AA | (AG/F/) GF TE>D C2 || z FGA (B3/2c/4B/4) Ac | %9
w: in ma- * * nu * De- i sunt,|* et non tan- get il\- * * los tor-|men\- * * tum ma- li- ti- ae:|non tan- get il\- * * los tor-|
 f2 A=B c>B c2 | z8 | z4 z2 c2- | c2 cc c>B A2 | d2 cB A>G G2 |({GA} TB2 A2) G2 B2- | BBBB B2 A2 | %16
w: men- tum ma- li- ti- ae:||Vi\-|* si sunt o- cu- lis|in- si- pi- en- ti- um|* * ri, il\-|* li au- tem sunt in|
 (G2 c3) Ffe | dcBA[Q:1/4=40] !fermata!G2"^ad lib." (F>G) | (!fermata!A2 TG2) F4 |] %19
w: pa\- * ce, il- li,|il- li au- tem sunt in *|pa\- * ce.|
V:2
 z!p!!<(! cc!<)!c (f>A) A2 | z B (B/c/4d/4c/B/) AF !>!c2- | cF BB (BA/G/) AA | %3
[M:4/4] (AG/F/) (GF) (E>D C2) | z!p!!<(! cc!<)!c (f>A) A2 | z B (B/c/4d/4c/B/) AF !>!c2- | %6
 cF BB (BA/G/) AA | (AG/F/) (GF) (E>D C2) || z (F!<(!GA)!<)! (B3/2c/4B/4) Ac | %9
 f2 A=B!>(! (c>B!>)! c)!mf! d/e/ | f2- fe/d/ (eagf) | (e2 [=Bd]2 c2)!p! c2- | %12
 c2 c2 !>![^Fc]>[GB] [FA]2 | [Bd]2 [Ac][GB] [C^FA]>[B,G] [B,G]2 |{GA} [DGB]2 [C^FA]2 [B,G]2 B2- | %15
 BBBB B2 A2 | G2 c3 (Ffe) | (dcBA) !fermata!G2"^ad lib." F>G | !fermata![FA]2 T[B,EG]2 [A,F]4 |] %19
V:3
 A2 G2 F3 F | (G/F/E/D/) (EC) F2 z E | D2- D/D/G/F/ EC F2 | %3
[M:4/4][K:bass] [B,D]3 =B, CC, C,/_B,/A,/G,/ | F,[K:treble]A G2 F3 F | (G/F/E/D/) (EC) F2 z E | %6
 D2- D/D/G/F/ EC F2 |[K:bass] [B,D]3 =B, CC, C,/_B,/A,/G,/ || z A,B,C DE F2 | D,3 G, C,3 z | %10
 z F/D/ C2- CF,E,F, | G,2 G,,2 C,2 z2 | _E,4 D,4- | D,6 _E,2 | D,4 G,,3 F, | %15
 =E,3 D, C,D,/E,/ F,A,, | B,,2 C,2 D,2 DC | B,A,G,F, !fermata!B,2 A,B, | %18
 !fermata!C2 [C,,C,]2 [F,,C,]4 |] %19
V:4
 F2 E2 D4 | x8 | x8 |[M:4/4][K:bass] x8 | x[K:treble] F E2 D4 | x8 | x8 |[K:bass] x8 || F,8 | x8 | %10
 x8 | x8 | x8 | x8 | x8 | x8 | x8 | x8 | x8 |] %19
V:5
 x8 | x8 | x8 |[M:4/4] x8 | x8 | x8 | x8 | x8 || x8 | A2 F2 E3 z | z A/[G=B]/ [Gc]2- c2 c[Ac] | %11
 [Gc]2- GF E2 z2 | z (AG)G[I:staff +1] A,>D D2 |[I:staff -1] D4 x4 | x6 G2- | G3 F EF/G/ AF- | %16
 F2 E2 FF F2- | F2 EF [CE]2 CD | x8 |] %19

